X: 2
T: Bukareshter Bulgar   [Dm]
S: Transcription by Steve Rauch
Z: 2013 John Chambers <jc:trillian.mit.edu>
M: 4/4
L: 1/8
K: Dm
A^GA "A"|\
"Dm"d>A FD AF DA, | "Dm"FE/F/ ED A,D^CD |\
[1,3 "A"E4- EA,DE | "Dm"F4 z :|\
[2,4 "Gm"AG- GF "A7"A/G/F F/E/D/^C/ | "Dm"D4 z :|
|: "C7"CDE "B"|\
"F"F2 "C"G2 "F"A2 "C7"B2 | "F"cA/c/ "C7"B/A/G "F"FF EF |\
[1,3 "C"AG- GC cA/c/ "C7"B/A/G | "F"A4 z :|\
[2,4 "A7"EF^GA A/G/F F/E/D | "Dm"D4 z :|
K: D
z2A, "C"|\
"D"D4 d2 zA/G/ | "D"FG F_E D4 |\
"D"^GA AA A4 | "D"cd dd d4 ||
"D"|:\
"D"A2 "G"B2 "D"=c2 "G"B2 | "D"A2 "A7"G2 "D"FE/F/ ED |\
[1,3 "D"AA- AF "G"GF/E/ "A7"AA | "D"A6 zD :|\
[2,4 "D"AA- AF "A7"GF/E/ AA | "D"D6 z2 :|

%%sep 1 1 500

